packages/foundations/assets/icons/functional/images/layout/fullscreen_exit_28.svg

<svg width="28" height="28" viewBox="0 0 28 28" fill="none" xmlns="http://www.w3.org/2000/svg">
<g clip-path="url(#clip0_185_1334)">
<path fill-rule="evenodd" clip-rule="evenodd" d="M10.5 18.375V24.5C10.5 25.0203 10.1445 25.375 9.625 25.375C9.10542 25.375 8.75 25.0246 8.75 24.5V19.25H3.5C3.00781 19.25 2.625 18.8946 2.625 18.375C2.625 17.8828 2.95312 17.5 3.5 17.5H9.625C10.1445 17.5 10.5 17.854 10.5 18.375ZM17.5 18.375C17.5 17.854 17.8554 17.5 18.375 17.5H24.5C25.0469 17.5 25.375 17.8828 25.375 18.375C25.375 18.8946 24.9922 19.25 24.5 19.25H19.25V24.5C19.25 25.0246 18.8945 25.375 18.375 25.375C17.8554 25.375 17.5 25.0203 17.5 24.5V18.375ZM17.5 9.625V3.5C17.5 2.97973 17.8554 2.625 18.375 2.625C18.8945 2.625 19.25 2.97544 19.25 3.5V8.75H24.5C24.9922 8.75 25.375 9.10551 25.375 9.625C25.375 10.1172 25.0469 10.5 24.5 10.5H18.375C17.8554 10.5 17.5 10.146 17.5 9.625ZM10.5 9.625C10.5 10.146 10.1445 10.5 9.625 10.5H3.5C2.95312 10.5 2.625 10.1172 2.625 9.625C2.625 9.10551 3.00781 8.75 3.5 8.75H8.75V3.5C8.75 2.97544 9.10542 2.625 9.625 2.625C10.1445 2.625 10.5 2.97973 10.5 3.5V9.625Z" fill="#1A1C1F"/>
</g>
<defs>
<clipPath id="clip0_185_1334">
<rect width="28" height="28" fill="white"/>
</clipPath>
</defs>
</svg>

<svg xmlns="http://www.w3.org/2000/svg" width="28" height="28" fill="none"><g clip-path="url(#a)"><path fill="#1A1C1F" fill-rule="evenodd" d="M10.5 18.375V24.5c0 .52-.355.875-.875.875s-.875-.35-.875-.875v-5.25H3.5c-.492 0-.875-.355-.875-.875 0-.492.328-.875.875-.875h6.125c.52 0 .875.354.875.875m7 0c0-.521.355-.875.875-.875H24.5c.547 0 .875.383.875.875 0 .52-.383.875-.875.875h-5.25v5.25c0 .525-.355.875-.875.875s-.875-.355-.875-.875zm0-8.75V3.5c0-.52.355-.875.875-.875s.875.35.875.875v5.25h5.25c.492 0 .875.356.875.875 0 .492-.328.875-.875.875h-6.125c-.52 0-.875-.354-.875-.875m-7 0c0 .521-.355.875-.875.875H3.5c-.547 0-.875-.383-.875-.875 0-.52.383-.875.875-.875h5.25V3.5c0-.525.355-.875.875-.875s.875.355.875.875z" clip-rule="evenodd"/></g><defs><clipPath id="a"><path fill="#fff" d="M0 0h28v28H0z"/></clipPath></defs></svg>
